svgs/idm.svg

<svg xmlns="http://www.w3.org/2000/svg" xmlns:android="http://schemas.android.com/apk/res/android" android:name="vector" width="24" height="24"><path android:name="path" fill-rule="evenOdd" d="M5.906 18.719h12.188a3.907 3.907 0 0 0 .625-7.763v-.987a4.688 4.688 0 0 0-9.188-1.317 2.5 2.5 0 0 0-4.25 1.785v.519a3.907 3.907 0 0 0 .625 7.763ZM11.844 9.5c0-.173.14-.312.312-.312h.938c.172 0 .312.139.312.312v1.875h.896c.264 0 .409.309.24.513l-1.677 2.011a.312.312 0 0 1-.48 0l-1.677-2.011a.313.313 0 0 1 .24-.513h.896ZM9.5 13.562h1.994l.531.638a.782.782 0 0 0 1.2 0l.531-.638h1.994c.345 0 .625.28.625.625v1.25c0 .346-.28.625-.625.625H9.5a.625.625 0 0 1-.625-.625v-1.25c0-.345.28-.625.625-.625Zm6.25 1.563a.312.312 0 1 1-.625 0 .313.313 0 1 1 .625 0Zm-1.406.312a.312.312 0 1 0 0-.625.313.313 0 1 0 0 .625Z"/></svg>

<?xml version="1.0" encoding="UTF-8" standalone="no"?><svg xmlns:android="http://schemas.android.com/apk/res/android" android:name="vector" height="24" width="24" xmlns="http://www.w3.org/2000/svg">
    <path android:name="path" d="M 5.906 18.719 L 18.094 18.719 C 20.251 18.719 22 16.97 22 14.812 C 22 12.868 20.579 11.255 18.719 10.956 L 18.719 9.969 C 18.719 7.38 16.62 5.281 14.031 5.281 C 11.899 5.281 10.1 6.704 9.531 8.652 C 9.08 8.21 8.463 7.938 7.781 7.938 C 6.401 7.938 5.281 9.057 5.281 10.437 L 5.281 10.956 C 3.421 11.255 2 12.868 2 14.812 C 2 16.97 3.749 18.719 5.906 18.719 Z M 11.844 9.5 C 11.844 9.327 11.984 9.188 12.156 9.188 L 13.094 9.188 C 13.266 9.188 13.406 9.327 13.406 9.5 L 13.406 11.375 L 14.302 11.375 C 14.566 11.375 14.711 11.684 14.542 11.888 L 12.865 13.899 C 12.74 14.049 12.51 14.049 12.385 13.899 L 10.708 11.888 C 10.539 11.684 10.684 11.375 10.948 11.375 L 11.844 11.375 Z M 9.5 13.562 L 11.494 13.562 L 12.025 14.2 C 12.337 14.574 12.913 14.574 13.225 14.2 L 13.756 13.562 L 15.75 13.562 C 16.095 13.562 16.375 13.842 16.375 14.187 L 16.375 15.437 C 16.375 15.783 16.095 16.062 15.75 16.062 L 9.5 16.062 C 9.155 16.062 8.875 15.783 8.875 15.437 L 8.875 14.187 C 8.875 13.842 9.155 13.562 9.5 13.562 Z M 15.75 15.125 C 15.75 15.298 15.61 15.437 15.438 15.437 C 15.265 15.437 15.125 15.298 15.125 15.125 C 15.125 14.952 15.265 14.812 15.438 14.812 C 15.61 14.812 15.75 14.952 15.75 15.125 Z M 14.344 15.437 C 14.516 15.437 14.656 15.298 14.656 15.125 C 14.656 14.952 14.516 14.812 14.344 14.812 C 14.171 14.812 14.031 14.952 14.031 15.125 C 14.031 15.298 14.171 15.437 14.344 15.437 Z" fill="#000000" fill-rule="evenOdd" stroke-width="1"/>
</svg>
